X: 6554
T: Catharsis
R: reel
M: 4/4
K: Aminor
|:EAAG EAAG|EGAB cABG|EGGD EGDG|edcd cABG|
EAAG EAAG|EGAB cABd|edcd cBAG|1 EAAG A2 A2:|2 EAAG ABcd||
|:eAAd AAcA|AEBE ABcd|eAAA GEBE|GEBE ABcd|
eAAd AAcA|AEBE ABcd|edcd cBAG|1 EAAG ABcd:|2 EAAG A2 A2||

